X: 41506
T: Uist
R: reel
M: 4/4
K: Dmixolydian
dAAd F2dB|c2Bc EAGE|dAAd F2dA|BcEG ADDA|
dAAd F2dB|c2Bc EAGE|FDAD AABc|E3G AD D2||
D2 AD D2 dA|c2Bc EAGE|D2 AD D2 dA|BcEG ADDA|
D2 AD D2 dB|c2Bc EAGE|D2 Ad d2 dA|BcEG AD D2||

